static/images/onboarding/community-guidelines.svg

<svg width="173" height="119" viewBox="0 0 173 119" fill="none" xmlns="http://www.w3.org/2000/svg">
<rect x="0.5" width="172" height="119" rx="8" fill="#4C97FF" fill-opacity="0.15"/>
<mask id="mask0_1163_5537" style="mask-type:alpha" maskUnits="userSpaceOnUse" x="0" y="0" width="173" height="119">
<rect x="0.5" width="172" height="119" rx="8" fill="#C4C4C4"/>
</mask>
<g mask="url(#mask0_1163_5537)">
<path d="M11.7021 93.257C0.499264 93.257 -8.49972 83.5932 -8.49972 71.6285C-8.49972 59.6638 0.591091 50 11.7021 50H19.0482C30.251 50 39.25 59.6638 39.25 71.6285C39.25 83.5932 30.1592 93.257 19.0482 93.257L25.5679 91.6923C24.3741 94.5455 24.0986 96.2942 24.7414 102.184C25.476 109.547 19.2318 110.284 8.3045 93.0729C8.12085 92.7968 6.92711 90.9561 6.74346 90.772L11.7021 93.257Z" fill="#4C97FF" fill-opacity="0.5"/>
<path d="M15.929 85.1577C8.01756 85.1577 1.60407 78.7295 1.60407 70.8C1.60407 62.8705 8.01756 56.4424 15.929 56.4424C23.8404 56.4424 30.2539 62.8705 30.2539 70.8C30.2539 78.7295 23.8404 85.1577 15.929 85.1577Z" fill="#4C97FF"/>
<path d="M22.7236 73.1006C22.7236 73.1006 16.2958 77.3342 9.4088 73.4687" stroke="#3373CC" stroke-width="2" stroke-miterlimit="10"/>
<path d="M25.1118 70.3392C24.1482 70.3392 23.3671 69.5563 23.3671 68.5905C23.3671 67.6247 24.1482 66.8418 25.1118 66.8418C26.0753 66.8418 26.8564 67.6247 26.8564 68.5905C26.8564 69.5563 26.0753 70.3392 25.1118 70.3392Z" fill="#3373CC"/>
<path d="M6.7465 70.3392C5.78292 70.3392 5.00178 69.5563 5.00178 68.5905C5.00178 67.6247 5.78292 66.8418 6.7465 66.8418C7.71008 66.8418 8.49121 67.6247 8.49121 68.5905C8.49121 69.5563 7.71008 70.3392 6.7465 70.3392Z" fill="#3373CC"/>
<path d="M48.6406 16.2007C49.6648 15.927 50.4158 15.1058 50.6889 14.1478L51.3033 11.8212C51.5764 10.7263 53.1468 10.7263 53.4199 11.8212L54.0343 14.1478C54.3074 15.1743 55.1267 15.927 56.0826 16.2007L58.4039 16.8166C59.4963 17.0903 59.4963 18.6642 58.4039 18.9379L56.0826 19.5538C55.0585 19.8275 54.3074 20.6487 54.0343 21.6067L53.4199 23.9334C53.1468 25.0282 51.5764 25.0282 51.3033 23.9334L50.6889 21.6067C50.4158 20.5803 49.5965 19.8275 48.6406 19.5538L46.3193 18.9379C45.2269 18.6642 45.2269 17.0903 46.3193 16.8166L48.6406 16.2007Z" fill="white"/>
<path d="M81.7016 90.2023C82.1835 90.0735 82.537 89.687 82.6655 89.2362L82.9546 88.1413C83.0832 87.6261 83.8221 87.6261 83.9507 88.1413L84.2398 89.2362C84.3683 89.7192 84.7539 90.0735 85.2037 90.2023L86.2961 90.4921C86.8102 90.6209 86.8102 91.3616 86.2961 91.4904L85.2037 91.7802C84.7218 91.909 84.3683 92.2955 84.2398 92.7463L83.9507 93.8412C83.8221 94.3564 83.0832 94.3564 82.9546 93.8412L82.6655 92.7463C82.537 92.2633 82.1514 91.909 81.7016 91.7802L80.6092 91.4904C80.0951 91.3616 80.0951 90.6209 80.6092 90.4921L81.7016 90.2023Z" fill="white"/>
<path d="M69.6406 79.2007C70.6647 78.927 71.4158 78.1058 71.6889 77.1478L72.3033 74.8212C72.5764 73.7263 74.1467 73.7263 74.4198 74.8212L75.0343 77.1478C75.3074 78.1743 76.1267 78.927 77.0825 79.2007L79.4039 79.8166C80.4963 80.0903 80.4963 81.6642 79.4039 81.9379L77.0825 82.5538C76.0584 82.8275 75.3074 83.6487 75.0343 84.6067L74.4198 86.9334C74.1467 88.0283 72.5764 88.0283 72.3033 86.9334L71.6889 84.6067C71.4158 83.5803 70.5965 82.8275 69.6406 82.5538L67.3193 81.9379C66.2269 81.6642 66.2269 80.0903 67.3193 79.8166L69.6406 79.2007Z" fill="white"/>
<path d="M154.886 100.294C155.337 100.174 155.669 99.8114 155.789 99.3887L156.06 98.3623C156.181 97.8792 156.874 97.8792 156.994 98.3623L157.265 99.3887C157.386 99.8416 157.747 100.174 158.169 100.294L159.193 100.566C159.675 100.687 159.675 101.381 159.193 101.502L158.169 101.774C157.717 101.894 157.386 102.257 157.265 102.679L156.994 103.706C156.874 104.189 156.181 104.189 156.06 103.706L155.789 102.679C155.669 102.227 155.307 101.894 154.886 101.774L153.861 101.502C153.38 101.381 153.38 100.687 153.861 100.566L154.886 100.294Z" fill="white"/>
<path d="M168.979 63.7261C180.805 63.7261 190.349 53.498 190.349 40.8632C190.349 28.2284 180.745 18.0003 168.979 18.0003H107.93C96.1046 17.9401 86.5 28.1683 86.5 40.803C86.5 53.4378 96.1046 63.666 107.87 63.666H112.973C114.233 66.7344 113.273 72.0891 112.072 78.2862C110.451 86.5891 127.74 82.6181 139.265 64.388C139.445 64.1473 139.565 63.9066 139.745 63.7261H168.979Z" fill="#4C97FF" fill-opacity="0.5"/>
<path fill-rule="evenodd" clip-rule="evenodd" d="M136.623 37.193C135.783 46.639 125.158 54.0394 122.456 54.0394C119.755 54.0394 109.13 46.639 108.29 37.193C108.29 36.8922 108.229 36.5914 108.229 36.2905C108.229 31.718 111.951 28.0479 116.513 28.0479C118.855 28.0479 120.956 29.0105 122.456 30.5748C123.957 29.0105 126.058 28.0479 128.399 28.0479C132.961 28.0479 136.683 31.7781 136.683 36.2905C136.683 36.5914 136.623 36.8922 136.623 37.193Z" fill="#4C97FF"/>
<path fill-rule="evenodd" clip-rule="evenodd" d="M169.1 38.3358C168.5 44.954 161.056 50.1282 159.135 50.1282C157.214 50.1282 149.771 44.954 149.17 38.3358C149.17 38.0951 149.11 37.9146 149.11 37.6739C149.11 34.4852 151.752 31.8379 154.933 31.8379C156.554 31.8379 158.055 32.4997 159.075 33.5827C160.096 32.4997 161.596 31.8379 163.217 31.8379C166.459 31.8379 169.04 34.425 169.04 37.6739C169.16 37.9146 169.1 38.1553 169.1 38.3358Z" fill="#4C97FF"/>
</g>
</svg>

<svg width="173" height="119" fill="none" xmlns="http://www.w3.org/2000/svg"><rect x=".5" width="172" height="119" rx="8" fill="#4C97FF" fill-opacity=".15"/><mask id="a" style="mask-type:alpha" maskUnits="userSpaceOnUse" x="0" y="0" width="173" height="119"><rect x=".5" width="172" height="119" rx="8" fill="#C4C4C4"/></mask><g mask="url(#a)"><path d="M11.702 93.257C.5 93.257-8.5 83.593-8.5 71.628-8.5 59.665.591 50 11.702 50h7.346c11.203 0 20.202 9.664 20.202 21.629 0 11.964-9.09 21.628-20.202 21.628l6.52-1.565c-1.194 2.854-1.47 4.602-.827 10.492.735 7.363-5.51 8.1-16.436-9.111-.184-.276-1.378-2.117-1.562-2.301l4.96 2.485Z" fill="#4C97FF" fill-opacity=".5"/><path d="M15.929 85.158c-7.911 0-14.325-6.428-14.325-14.358 0-7.93 6.414-14.358 14.325-14.358S30.254 62.87 30.254 70.8c0 7.93-6.414 14.358-14.325 14.358Z" fill="#4C97FF"/><path d="M22.724 73.1s-6.428 4.234-13.315.369" stroke="#3373CC" stroke-width="2" stroke-miterlimit="10"/><path d="M25.112 70.34a1.747 1.747 0 0 1-1.745-1.75c0-.965.781-1.748 1.745-1.748.963 0 1.744.783 1.744 1.749 0 .965-.78 1.748-1.744 1.748ZM6.747 70.34a1.747 1.747 0 0 1-1.745-1.75c0-.965.78-1.748 1.745-1.748.963 0 1.744.783 1.744 1.749 0 .965-.78 1.748-1.744 1.748Z" fill="#3373CC"/><path d="M48.64 16.2c1.025-.273 1.776-1.094 2.049-2.052l.614-2.327c.273-1.095 1.844-1.095 2.117 0l.614 2.327c.273 1.026 1.093 1.779 2.049 2.053l2.32.616c1.093.273 1.093 1.847 0 2.12l-2.32.617c-1.024.274-1.776 1.095-2.049 2.053l-.614 2.326c-.273 1.095-1.844 1.095-2.117 0l-.614-2.326c-.273-1.027-1.093-1.78-2.048-2.053l-2.322-.616c-1.092-.274-1.092-1.848 0-2.121l2.322-.616ZM81.702 90.202a1.39 1.39 0 0 0 .963-.966l.29-1.095c.128-.515.867-.515.996 0l.289 1.095c.128.483.514.837.964.966l1.092.29c.514.129.514.87 0 .998l-1.092.29a1.39 1.39 0 0 0-.964.966l-.29 1.095c-.128.515-.867.515-.995 0l-.29-1.095a1.39 1.39 0 0 0-.963-.966l-1.093-.29c-.514-.128-.514-.87 0-.998l1.093-.29ZM69.64 79.2c1.025-.273 1.776-1.094 2.049-2.052l.614-2.327c.273-1.095 1.844-1.095 2.117 0l.614 2.327c.273 1.026 1.093 1.779 2.048 2.053l2.322.616c1.092.273 1.092 1.847 0 2.12l-2.322.617c-1.024.273-1.775 1.095-2.048 2.053l-.614 2.326c-.273 1.095-1.844 1.095-2.117 0l-.614-2.326c-.273-1.027-1.092-1.78-2.048-2.053l-2.322-.616c-1.092-.274-1.092-1.848 0-2.121l2.322-.616ZM154.886 100.294a1.3 1.3 0 0 0 .903-.905l.271-1.027c.121-.483.814-.483.934 0l.271 1.027c.121.453.482.785.904.905l1.024.272c.482.121.482.815 0 .936l-1.024.272c-.452.12-.783.483-.904.905l-.271 1.027c-.12.483-.813.483-.934 0l-.271-1.027a1.301 1.301 0 0 0-.903-.905l-1.025-.272c-.481-.121-.481-.815 0-.936l1.025-.272Z" fill="#fff"/><path d="M168.979 63.726c11.826 0 21.37-10.228 21.37-22.863S180.745 18 168.979 18H107.93C96.105 17.94 86.5 28.168 86.5 40.803c0 12.635 9.605 22.863 21.37 22.863h5.103c1.26 3.068.3 8.423-.901 14.62-1.621 8.303 15.668 4.332 27.193-13.898.18-.24.3-.481.48-.662h29.234Z" fill="#4C97FF" fill-opacity=".5"/><path fill-rule="evenodd" clip-rule="evenodd" d="M136.623 37.193c-.84 9.446-11.465 16.846-14.167 16.846-2.701 0-13.326-7.4-14.166-16.846 0-.3-.061-.602-.061-.902 0-4.573 3.722-8.243 8.284-8.243 2.342 0 4.443.963 5.943 2.527a8.19 8.19 0 0 1 5.943-2.527c4.562 0 8.284 3.73 8.284 8.243 0 .3-.06.601-.06.902ZM169.1 38.336c-.6 6.618-8.044 11.792-9.965 11.792-1.921 0-9.364-5.174-9.965-11.792 0-.24-.06-.421-.06-.662 0-3.189 2.642-5.836 5.823-5.836 1.621 0 3.122.662 4.142 1.745 1.021-1.083 2.521-1.745 4.142-1.745a5.797 5.797 0 0 1 5.823 5.836c.12.24.06.481.06.662Z" fill="#4C97FF"/></g></svg>
